.local/share/icons/Gruvbox-Plus-Dark/actions/16/code-variable.svg

<svg xmlns="http://www.w3.org/2000/svg" width="16" height="16" viewBox="0 0 16 16">
 <defs>
  <style id="current-color-scheme" type="text/css">
   .ColorScheme-Text { color:#ebdbb2; } .ColorScheme-Highlight { color:#458588; }
  </style>
 </defs>
 <path style="fill:currentColor" class="ColorScheme-Text" d="M 1 1.0039062 L 1 8.0039062 L 15 8.0039062 L 15 1.0039062 L 1 1.0039062 z M 1 9.0039062 L 1 13.003906 L 4 13.003906 L 4 9.0039062 L 1 9.0039062 z M 6 9.0039062 L 6 15.003906 L 9 15.003906 L 9 9.0039062 L 6 9.0039062 z M 11 9.0039062 L 11 12.003906 L 15 12.003906 L 15 9.0039062 L 11 9.0039062 z"/>
</svg>

<svg width="16" height="16" version="1.1" xmlns="http://www.w3.org/2000/svg">
  <defs>
    <style id="current-color-scheme" type="text/css">.ColorScheme-Text { color:#ebdbb2; } .ColorScheme-Highlight { color:#458588; }</style>
  </defs>
  <path class="ColorScheme-Text" d="m1 1.004v7h14v-7h-14zm0 8v4h3v-4h-3zm5 0v6h3v-6h-3zm5 0v3h4v-3h-4z" fill="currentColor"/>
</svg>
